public/images/icon_wordpress.svg

<svg fill="none" height="24" viewBox="0 0 24 24" width="24" xmlns="http://www.w3.org/2000/svg"><path d="m8.80005 21.6-.47891.1437c.06326.2108.257.3555.47715.3563s.4149-.1426.47965-.353zm6.39995 0-.4789.1437c.0611.2036.2443.3463.4567.3558s.4075-.1164.4865-.3138zm5.6492-14.123.4643.18569zm-.8664-3.08997-.3.4zm-.2113-.15847.3-.4zm-3.2 3.2.4-.3zm.4571-3.2-.3-.4zm-5.0286 18.47144c-5.9094 0-10.69995-4.7906-10.69995-10.7h-1.000001c0 6.4617 5.238271 11.7 11.699951 11.7zm10.7-10.7c0 5.9094-4.7905 10.7-10.7 10.7v1c6.4618 0 11.7-5.2383 11.7-11.7zm-10.7-10.70001c5.9095 0 10.7 4.79055 10.7 10.70001h1c0-6.46174-5.2382-11.700012-11.7-11.700012zm0-1.000002c-6.46168 0-11.699951 5.238272-11.699951 11.700012h1.000001c0-5.90946 4.79055-10.70001 10.69995-10.70001zm-8.47886 5.443672 4.8 16.00004.95782-.2874-4.8-15.99999zm5.7568 16.00334 3.19996-10.4-.9557-.2941-3.20004 10.4zm.6432-16.00334 4.79996 16.00004.9579-.2874-4.8-15.99999zm10.36166-1.75663-.2113-.15847-.6.8.2113.15847zm-4.1113 3.74153 1.0285 1.37143.8-.6-1.0285-1.37143zm.5571-3.9c-1.2308.9231-1.4802 2.66919-.5571 3.9l.8-.6c-.5918-.78898-.4319-1.90827.3571-2.5zm3.3429 0c-.9905-.74286-2.3524-.74286-3.3429 0l.6.8c.6349-.47619 1.508-.47619 2.1429 0zm1.242 3.83413c.5269-1.31734.1043-2.82437-1.0307-3.67566l-.6.8c.7733.57999 1.0612 1.60675.7022 2.50427zm-18.11345-1.5627h3.2v-1h-3.2zm4.8 0h4.79995v-1h-4.79995zm7.66425 15.68571 5.6492-14.12301-.9285-.37139-5.6492 14.123z" fill="#ddd"/></svg>

<svg width="24" height="24" viewBox="0 0 24 24" fill="none" xmlns="http://www.w3.org/2000/svg">
<path d="M8.80005 21.6L8.32114 21.7437C8.3844 21.9545 8.57814 22.0992 8.79829 22.1C9.01844 22.1008 9.21319 21.9574 9.27794 21.747L8.80005 21.6ZM15.2 21.6L14.7211 21.7437C14.7822 21.9473 14.9654 22.09 15.1778 22.0995C15.3902 22.109 15.5853 21.9831 15.6643 21.7857L15.2 21.6ZM20.8492 7.477L21.3135 7.66269L20.8492 7.477ZM19.9828 4.38703L19.6828 4.78703L19.6828 4.78703L19.9828 4.38703ZM19.7715 4.22856L20.0715 3.82856L20.0715 3.82856L19.7715 4.22856ZM16.5715 7.42856L16.9715 7.12856L16.9715 7.12856L16.5715 7.42856ZM17.0286 4.22856L16.7286 3.82856L17.0286 4.22856ZM12 22.7C6.0906 22.7 1.30005 17.9094 1.30005 12H0.300049C0.300049 18.4617 5.53832 23.7 12 23.7V22.7ZM22.7 12C22.7 17.9094 17.9095 22.7 12 22.7V23.7C18.4618 23.7 23.7 18.4617 23.7 12H22.7ZM12 1.29999C17.9095 1.29999 22.7 6.09054 22.7 12H23.7C23.7 5.53826 18.4618 0.299988 12 0.299988V1.29999ZM12 0.299988C5.53832 0.299988 0.300049 5.53826 0.300049 12H1.30005C1.30005 6.09054 6.0906 1.29999 12 1.29999V0.299988ZM3.52114 5.74366L8.32114 21.7437L9.27896 21.4563L4.47896 5.45631L3.52114 5.74366ZM9.27794 21.747L12.4779 11.347L11.5222 11.0529L8.32216 21.4529L9.27794 21.747ZM9.92114 5.74366L14.7211 21.7437L15.679 21.4563L10.879 5.45631L9.92114 5.74366ZM20.2828 3.98703L20.0715 3.82856L19.4715 4.62856L19.6828 4.78703L20.2828 3.98703ZM16.1715 7.72856L17.2 9.09999L18 8.49999L16.9715 7.12856L16.1715 7.72856ZM16.7286 3.82856C15.4978 4.75166 15.2484 6.49775 16.1715 7.72856L16.9715 7.12856C16.3797 6.33958 16.5396 5.22029 17.3286 4.62856L16.7286 3.82856ZM20.0715 3.82856C19.081 3.0857 17.7191 3.0857 16.7286 3.82856L17.3286 4.62856C17.9635 4.15237 18.8366 4.15237 19.4715 4.62856L20.0715 3.82856ZM21.3135 7.66269C21.8404 6.34535 21.4178 4.83832 20.2828 3.98703L19.6828 4.78703C20.4561 5.36702 20.744 6.39378 20.385 7.2913L21.3135 7.66269ZM3.20005 6.09999H6.40005V5.09999H3.20005V6.09999ZM8.00005 6.09999H12.8V5.09999H8.00005V6.09999ZM15.6643 21.7857L21.3135 7.66269L20.385 7.2913L14.7358 21.4143L15.6643 21.7857Z" fill="#DDDDDD"/>
</svg>
